!!!COM: Monteverdi, Claudio
!!!CDT: 1567/05/15/-1643/11/29/
!!!OTL: Gloria tua 
!!!OTL2: T'amo mia vita
!!!ONM: No. 18
!!!SMS: Musica tolta da i madrigali di Claudio Monteverdi, e d'altri autori, e fatta spirituale
!!!PPR: A. Coppini, ed.
!!!PPP: Milan
!!!PDT: 1607
!!!URL: http://www.jpj.dk/coppini.htm
!!!AIN: contrafacta
**kern	**kern	**kern	**kern	**kern
*staff5	*staff4	*staff3	*staff2	*staff1
*Ivox	*Ivox	*Ivox	*Ivox	*Ivox
!basso	!tenore	!alto	!quinto	!canto
*clefF4	*clefG2	*clefG2	*clefG2	*clefG2
*k[]	*k[]	*k[]	*k[]	*k[]
*M4/4	*M4/4	*M4/4	*M4/4	*M4/4
*MM120	*MM120	*MM120	*MM120	*MM120
=1-	=1-	=1-	=1-	=1-
2.D\	1r	1r	1r	2r
.	.	.	.	[2a/
8C/L	.	.	.	.
8BB/J	.	.	.	.
=2	=2	=2	=2	=2
2AA/	1r	1r	1r	2.a/]
2DD/	.	.	.	.
.	.	.	.	8g/
.	.	.	.	8f/
=3	=3	=3	=3	=3
1AA	1r	1r	1r	1e
=4	=4	=4	=4	=4
1D	1r	1r	1r	1d
=5	=5	=5	=5	=5
8D\	8f#/	8a/	1r	1r
8D\	8f#/	8a/	.	.
8D\	8f#/	8a/	.	.
8D\	8f#/	8a/	.	.
4GG/	4g/	4b-\	.	.
4GG/	4g/	4b-\	.	.
=6	=6	=6	=6	=6
8E\	8g#/	8bn\	1r	1r
8E\	8g#/	8b\	.	.
8E\	8g#/	8b\	.	.
8E\	8g#/	8b\	.	.
4AA/	4a/	4cc\	.	.
4AA/	4a/	4cc\	.	.
=7	=7	=7	=7	=7
8A\	8cc#\	8ee\	1r	1r
8A\	8cc#\	8ee\	.	.
8A\	8cc#\	8ee\	.	.
8A\	8cc#\	8ee\	.	.
8D\	8dd\	8ff\	.	.
8D\	8ccn\	8ee\	.	.
8D\	8b\	8dd\	.	.
8D\	8a/	8cc\	.	.
=8	=8	=8	=8	=8
4E\	4g#/	4b\	1r	1r
8AA/	8a/	8cc\	.	.
8AA/	8a/	8cc\	.	.
2E\	2g#/	2b\	.	.
=9	=9	=9	=9	=9
4AA/	2a/	2a/	1r	2r
4GG/	.	.	.	.
4FF/	2r	2r	.	[2a/
8EE/L	.	.	.	.
8DD/J	.	.	.	.
=10	=10	=10	=10	=10
1AA	1r	1r	1r	4a/]
.	.	.	.	8g/
.	.	.	.	8f/
.	.	.	.	2e/
=11	=11	=11	=11	=11
4DD/	4r	4r	1r	1d
4D\	4f#/	4a/	.	.
4D\	4f#/	4a/	.	.
4D\	4f#/	4a/	.	.
=12	=12	=12	=12	=12
4G\	4g/	4b\	1r	1r
4G\	4g/	4b\	.	.
8GG/	8g/	8b\	.	.
8GG/	8g/	8cc\	.	.
4GG/	4b\	4dd\	.	.
=13	=13	=13	=13	=13
4GG/	4b\	4.dd\	1r	1r
4GG/	4b\	.	.	.
.	.	8ee\	.	.
2C/	2cc\	2cc\	.	.
=14	=14	=14	=14	=14
4C/	4g/	4cc\	1r	1r
4E\	4g#/	4b\	.	.
4E\	4g#/	4b\	.	.
4E\	4g#/	4b\	.	.
=15	=15	=15	=15	=15
4A\	4a/	4cc\	1r	1r
4A\	4a/	4cc\	.	.
8AA/	8a/	8cc\	.	.
8AA/	8b\	8dd\	.	.
4AA/	4cc\	4ee\	.	.
=16	=16	=16	=16	=16
4AA/	4cc\	4ee\	1r	1r
4AA/	4cc#\	4ff#\	.	.
2D\	2dd\	2dd\	.	.
=17	=17	=17	=17	=17
4D\	4a/	4dd\	1r	1r
4D\	4f#/	4a/	.	.
4D\	4f#/	4a/	.	.
4D\	4f#/	4a/	.	.
=18	=18	=18	=18	=18
4.G\	4.g/	4.b\	1r	1r
8G\	8a/	8cc\	.	.
4G\	4.b\	4dd\	.	.
4F\	.	4dd\	.	.
.	8b\	.	.	.
=19	=19	=19	=19	=19
4E\	4cc\	4cc\	1r	1r
4D\	4b\	4dd\	.	.
2C/	2cc/	2ee/	.	.
=20	=20	=20	=20	=20
4C/	4cc\	4ee\	1r	1r
4C/	4cc\	4ee\	.	.
4.F\	4.a/	4.cc\	.	.
8F\	8a/	8cc\	.	.
=21	=21	=21	=21	=21
4D\	4dd\	4ff\	1r	1r
4D\	4dd\	4ff\	.	.
2AA/	2cc#\	2ee\	.	.
=22	=22	=22	=22	=22
1D	1dd	1dd	1r	8r
.	.	.	.	8a/
.	.	.	.	8b\
.	.	.	.	8cc\
.	.	.	.	8dd\
.	.	.	.	8dd\
.	.	.	.	[4dd\
=23	=23	=23	=23	=23
4D\	1r	1r	1r	1dd_
4C/	.	.	.	.
4BB/	.	.	.	.
8AA/L	.	.	.	.
8GG/J	.	.	.	.
=24	=24	=24	=24	=24
2FF#/	1r	1r	1r	2.dd\]
2GG/	.	.	.	.
.	.	.	.	8b\
.	.	.	.	8a/
=25	=25	=25	=25	=25
2D\	2r	2r	1r	2a/
4GG/	4r	4r	.	2g/
4G\	4g/	4b\	.	.
=26	=26	=26	=26	=26
2E\	2g#/	2b\	1r	2r
2E\	2g#/	2b\	.	4r
.	.	.	.	[4ee\
=27	=27	=27	=27	=27
4AA/	1r	1r	1r	2.ee\]
4BB/	.	.	.	.
4C/	.	.	.	.
4D\	.	.	.	8dd\
.	.	.	.	8cc\
=28	=28	=28	=28	=28
2E\	2r	1r	1r	2b\
8A\	8cc\	.	.	2a/
8A\	8cc\	.	.	.
8A\	8cc\	.	.	.
8A\	8cc\	.	.	.
=29	=29	=29	=29	=29
8G#\	8b\	1r	1r	1r
8G#\	8b\	.	.	.
8G#\	8b\	.	.	.
8G#\	8b\	.	.	.
4A\	4a/	.	.	.
4A\	4a/	.	.	.
=30	=30	=30	=30	=30
8c\	8a/	8ee\	1r	1r
8c\	8a/	8ee\	.	.
8c\	8a/	8ee\	.	.
8c\	8a/	8ee\	.	.
8B\	8g#/	8ee\	.	.
8B\	8g#/	8ee\	.	.
8B\	8g#/	8dd\	.	.
8B\	8g#/	8dd\	.	.
=31	=31	=31	=31	=31
4A\	4a/	4cc\	1r	1r
4A\	4a/	4cc\	.	.
4AA/	4ee\	4cc\	.	.
8AA/	8dd\	8b\	.	.
8AA/	8cc\	8a/	.	.
=32	=32	=32	=32	=32
4E\	4.b\	4.a/	1r	1r
4E\	.	.	.	.
.	8b\	8g#/	.	.
4A\	4a/	4a/	.	.
4A\	4a/	4a/	.	.
=33	=33	=33	=33	=33
4AA/	4cc\	4ee\	1r	1r
8AA/	8b\	8dd\	.	.
8AA/	8a/	8cc\	.	.
4E\	4.a/	4.b\	.	.
4E\	.	.	.	.
.	8g#/	8b\	.	.
=34	=34	=34	=34	=34
4AA/	4a/	4a/	1r	1r
4AA/	4a/	4a/	.	.
4r	4r	4r	.	.
4C/	4e/	4g/	.	.
=35	=35	=35	=35	=35
4C/	4e/	4g/	1r	1r
4.C/	4.e/	4.g/	.	.
8C/	8e/	8g/	.	.
4C/	4e/	4g/	.	.
=36	=36	=36	=36	=36
2FF/	2a/	2cc\	1r	1r
4r	4r	4r	.	.
4BB-/	4dd\	4b-\	.	.
=37	=37	=37	=37	=37
4BB-/	4dd\	4b-\	1r	1r
4.BB-/	4.dd\	4.b-\	.	.
8BB-/	8dd\	8b-\	.	.
4AA/	4cc\	4cc\	.	.
=38	=38	=38	=38	=38
2GG/	2b-\	2dd\	1r	1r
2GG/	2b-\	2g/	.	.
=39	=39	=39	=39	=39
4GG/	4b-\	4g/	1r	1r
4D\	4f#/	4a/	.	.
2GG/	2g/	2b-\	.	.
=40	=40	=40	=40	=40
1D	2f#/	1a	1r	1r
.	[2dd\	.	.	.
=41	=41	=41	=41	=41
2.D\	4dd\]	1r	2.f/	2r
.	8cc\	.	.	.
.	8b\	.	.	.
.	2a/	.	.	[2a/
8C/	.	.	8e/	.
8BB/	.	.	8d/	.
=42	=42	=42	=42	=42
1AA	2a/	1r	4c#/	4a/]
.	.	.	2d/	8g/
.	.	.	.	8f/
.	2a/	.	.	2e/
.	.	.	4c#/	.
=43	=43	=43	=43	=43
1D	4a/	2r	2d/	2f#/
.	4g/	.	.	.
.	4f#/	4dd\	2r	2r
.	4e/	4cc\	.	.
=44	=44	=44	=44	=44
4GG/	2d/	4b\	2r	2.b\
4AA/	.	4a/	.	.
4BB/	2d/	2g/	[2dd\	.
4C/	.	.	.	8a/
.	.	.	.	8g/
=45	=45	=45	=45	=45
1D	1r	2dd\	4dd\]	4f#/
.	.	.	8cc\	2g/
.	.	.	8b\	.
.	.	4dd\	2a/	.
.	.	4cc\	.	4f#/
=46	=46	=46	=46	=46
2GG/	4dd\	4b\	1b	1g
.	4cc\	4a/	.	.
4G\	4b\	4g/	.	.
4F\	4a/	4g/	.	.
=47	=47	=47	=47	=47
4E\	2g/	4gg\	8r	8r
.	.	.	8g/	8b\
4D\	.	4ff\	8a/	8cc\
.	.	.	8b\	8dd\
4C/	2g/	4ee\	8cc\	8ee\
.	.	.	8cc\	8ee\
4BB/	.	4dd\	[4cc\	[4ee\
=48	=48	=48	=48	=48
4AA/	1r	8cc\L	2.cc\]	2.ee\]
.	.	8b\J	.	.
4BB/	.	8cc\L	.	.
.	.	8dd\J	.	.
4C/	.	[2ee\	.	.
4D\	.	.	8b\	8dd\
.	.	.	8a/	8cc\
=49	=49	=49	=49	=49
2E\	2r	2ee\]	2g#/	2b\
2AA/	4ee\	2cc\	2a/	2a/
.	4dd\	.	.	.
=50	=50	=50	=50	=50
4A\	4cc\	2r	8r	1r
.	.	.	8e/	.
4G\	4b\	.	8f/	.
.	.	.	8g/	.
4F\	2a/	8r	8a/	.
.	.	8cc\	8a/	.
4E\	.	8dd\	[4a/	.
.	.	8ee\	.	.
=51	=51	=51	=51	=51
1D	8a/	8ff\	4a/]	1r
.	8a/	8ff\	.	.
.	8b\	[2.ff\	8g/	.
.	8cc#\	.	8f/	.
.	8dd\	.	2a/	.
.	8dd\	.	.	.
.	[4dd\	.	.	.
=52	=52	=52	=52	=52
1A	4dd\]	4ff\]	2a/	1r
.	8cc#\	8ee\	.	.
.	8b\	8dd\	.	.
.	2cc#\	2ee\	4a/	.
.	.	.	4g/	.
=53	=53	=53	=53	=53
2r	2dd\	2dd\	4f/	4a/
.	.	.	4e/	4g/
4D\	2r	2r	4d/	4f/
4C/	.	.	4d/	4e/
=54	=54	=54	=54	=54
4BB-/	2r	4g/	4dd\	4d/
4AA/	.	4a/	4cc\	4d/
[2GG/	4g/	4b-\	4b-\	4dd\
.	4a/	4cc\	4a/	4cc\
=55	=55	=55	=55	=55
1GG_	2.b-\	[1dd	2.g/	4b-\
.	.	.	.	4a/
.	.	.	.	[2g/
.	4a/	.	4a/	.
=56	=56	=56	=56	=56
1GG]	1g	1dd]	1b-	1g]
=57	=57	=57	=57	=57
1D;	1a;	1dd;	1a;	1f#;
==	==	==	==	==
*-	*-	*-	*-	*-
!!!ENC: Craig Stuart Sapp
!!!END: 2004/12/10/
